categories/64/preferences-system-power.svg

<?xml version="1.0" encoding="UTF-8" standalone="no"?>
<svg
   xmlns:dc="http://purl.org/dc/elements/1.1/"
   xmlns:cc="http://creativecommons.org/ns#"
   xmlns:rdf="http://www.w3.org/1999/02/22-rdf-syntax-ns#"
   xmlns:svg="http://www.w3.org/2000/svg"
   xmlns="http://www.w3.org/2000/svg"
   xmlns:xlink="http://www.w3.org/1999/xlink"
   xmlns:sodipodi="http://sodipodi.sourceforge.net/DTD/sodipodi-0.dtd"
   xmlns:inkscape="http://www.inkscape.org/namespaces/inkscape"
   version="1.1"
   width="64"
   height="64"
   id="svg4117"
   inkscape:version="0.91 r13725"
   sodipodi:docname="preferences-system-power.svg">
  <sodipodi:namedview
     pagecolor="#ffffff"
     bordercolor="#666666"
     borderopacity="1"
     objecttolerance="10"
     gridtolerance="10"
     guidetolerance="10"
     inkscape:pageopacity="0"
     inkscape:pageshadow="2"
     inkscape:window-width="1366"
     inkscape:window-height="712"
     id="namedview99"
     showgrid="false"
     inkscape:zoom="1"
     inkscape:cx="33.920986"
     inkscape:cy="32.943173"
     inkscape:window-x="0"
     inkscape:window-y="30"
     inkscape:window-maximized="1"
     inkscape:current-layer="svg4117" />
  <defs
     id="defs4119">
    <linearGradient
       x1="71.204407"
       y1="15.369057"
       x2="71.204407"
       y2="40.495617"
       id="linearGradient3264"
       xlink:href="#linearGradient4806"
       gradientUnits="userSpaceOnUse"
       gradientTransform="matrix(2.3268746,0,0,2.3268746,-135.94475,-32.842783)" />
    <linearGradient
       id="linearGradient4806">
      <stop
         id="stop4808"
         style="stop-color:#ffffff;stop-opacity:1"
         offset="0" />
      <stop
         id="stop4810"
         style="stop-color:#ffffff;stop-opacity:0.23529412"
         offset="0.42447853" />
      <stop
         id="stop4812"
         style="stop-color:#ffffff;stop-opacity:0.15686275"
         offset="0.82089913" />
      <stop
         id="stop4814"
         style="stop-color:#ffffff;stop-opacity:0.39215687"
         offset="1" />
    </linearGradient>
    <radialGradient
       cx="15.026252"
       cy="8.6257601"
       r="19.99999"
       fx="4.4589653"
       fy="8.5088921"
       id="radialGradient4068"
       xlink:href="#linearGradient3846"
       gradientUnits="userSpaceOnUse"
       gradientTransform="matrix(-5.0327306e-8,2.7132691,-2.5562927,-7.874721e-8,53.786886,-14.038945)" />
    <linearGradient
       id="linearGradient3846">
      <stop
         id="stop3848"
         style="stop-color:#fff3cb;stop-opacity:1"
         offset="0" />
      <stop
         id="stop3850"
         style="stop-color:#fdde76;stop-opacity:1"
         offset="0.26238" />
      <stop
         id="stop3852"
         style="stop-color:#f9c440;stop-opacity:1"
         offset="0.66093999" />
      <stop
         id="stop3854"
         style="stop-color:#e48b20;stop-opacity:1"
         offset="1" />
    </linearGradient>
    <radialGradient
       xlink:href="#linearGradient3820-7-2-1"
       id="radialGradient3300"
       gradientUnits="userSpaceOnUse"
       gradientTransform="matrix(0.3823536,7.5555777e-8,-1.8372241e-8,0.1115198,-5.9254271,36.335849)"
       cx="99.189415"
       cy="185.29727"
       fx="99.189415"
       fy="185.29727"
       r="62.769119" />
    <linearGradient
       id="linearGradient3820-7-2-1">
      <stop
         id="stop3822-2-6-7"
         style="stop-color:#000000;stop-opacity:1"
         offset="0" />
      <stop
         id="stop3824-1-2-4"
         style="stop-color:#000000;stop-opacity:0"
         offset="1" />
    </linearGradient>
    <radialGradient
       inkscape:collect="always"
       xlink:href="#linearGradient3820-7-2-1"
       id="radialGradient4192"
       gradientUnits="userSpaceOnUse"
       gradientTransform="matrix(0.2549024,5.3967361e-8,-1.2248161e-8,0.07965545,6.7163816,44.240666)"
       cx="99.189415"
       cy="185.29727"
       fx="99.189415"
       fy="185.29727"
       r="62.769119" />
  </defs>
  <metadata
     id="metadata4122">
    <rdf:RDF>
      <cc:Work
         rdf:about="">
        <dc:format>image/svg+xml</dc:format>
        <dc:type
           rdf:resource="http://purl.org/dc/dcmitype/StillImage" />
        <dc:title />
      </cc:Work>
    </rdf:RDF>
  </metadata>
  <g
     transform="translate(1.55e-6,-0.00183192)"
     id="g4198">
    <path
       inkscape:connector-curvature="0"
       d="m 55.999998,57.0017 a 24,6.9985714 0 1 1 -47.9999991,0 24,6.9985714 0 1 1 47.9999991,0 z"
       id="path3818-0"
       style="opacity:0.2;fill:url(#radialGradient3300);fill-opacity:1;stroke:none" />
    <path
       style="opacity:0.4;fill:url(#radialGradient4192);fill-opacity:1;stroke:none"
       id="path4190"
       d="m 47.999998,59.0017 a 16,4.9988822 0 1 1 -31.999999,0 16,4.9988822 0 1 1 31.999999,0 z"
       inkscape:connector-curvature="0" />
  </g>
  <path
     inkscape:connector-curvature="0"
     style="color:#000000;display:inline;overflow:visible;visibility:visible;fill:url(#radialGradient4068);fill-opacity:1;fill-rule:nonzero;stroke:none;stroke-width:1;marker:none;enable-background:accumulate"
     id="path2555-7-65"
     d="m 32,2.4999982 c -16.277082,0 -29.5000005,13.2229178 -29.5000005,29.5000008 0,16.277082 13.2229185,29.500004 29.5000005,29.5 16.27708,0 29.500011,-13.222918 29.5,-29.5 C 61.5,15.722916 48.27708,2.4999982 32,2.4999982 Z" />
  <path
     inkscape:connector-curvature="0"
     style="color:#000000;display:inline;overflow:visible;visibility:visible;opacity:0.8;fill:none;stroke:url(#linearGradient3264);stroke-width:1;stroke-linecap:round;stroke-linejoin:round;stroke-miterlimit:4;stroke-dasharray:none;stroke-dashoffset:0;stroke-opacity:1;marker:none;enable-background:accumulate"
     id="path3019"
     d="m 60.50001,31.999999 c 0,15.740115 -12.7599,28.499999 -28.50002,28.499999 -15.740099,0 -28.499991,-12.759884 -28.499991,-28.499999 0,-15.740116 12.759892,-28.5000011 28.499991,-28.5000011 15.74012,0 28.50002,12.7598851 28.50002,28.5000011 z" />
  <path
     inkscape:connector-curvature="0"
     style="color:#000000;display:inline;overflow:visible;visibility:visible;opacity:0.4;fill:none;stroke:#915f00;stroke-width:0.99999994;stroke-linecap:round;stroke-linejoin:round;stroke-miterlimit:4;stroke-dasharray:none;stroke-dashoffset:0;stroke-opacity:1;marker:none;enable-background:accumulate"
     id="path2555-7-1-7"
     d="m 32,2.499998 c -16.277084,0 -29.500001,13.222915 -29.500001,29.499999 0,16.277085 13.222917,29.500009 29.500001,29.500002 16.277083,0 29.50002,-13.222917 29.5,-29.500002 C 61.5,15.722913 48.277083,2.499998 32,2.499998 Z" />
  <path
     d="m 38,16 -15,21 9,0 -6,15 15,-21 -7,0 z"
     id="path12615"
     style="display:inline;overflow:visible;visibility:visible;fill:#ffffff;fill-opacity:1;fill-rule:nonzero;stroke:none;stroke-width:1;marker:none;enable-background:accumulate;opacity:0.4"
     inkscape:connector-curvature="0" />
  <path
     inkscape:connector-curvature="0"
     style="display:inline;overflow:visible;visibility:visible;fill:#333333;fill-opacity:1;fill-rule:nonzero;stroke:none;stroke-width:1;marker:none;enable-background:accumulate"
     id="path3172"
     d="m 38,15 -15,21 9,0 -6,15 15,-21 -7,0 z" />
</svg>

<svg xmlns="http://www.w3.org/2000/svg" xmlns:xlink="http://www.w3.org/1999/xlink" viewBox="0 0 64 64"><defs><linearGradient x1="71.204" y1="15.369" x2="71.204" y2="40.496" id="g" xlink:href="#a" gradientUnits="userSpaceOnUse" gradientTransform="translate(-135.945 -32.843) scale(2.32687)"/><linearGradient id="a"><stop offset="0" stop-color="#fff"/><stop offset=".424" stop-color="#fff" stop-opacity=".235"/><stop offset=".821" stop-color="#fff" stop-opacity=".157"/><stop offset="1" stop-color="#fff" stop-opacity=".392"/></linearGradient><radialGradient cx="15.026" cy="8.626" r="20" fx="4.459" fy="8.509" id="f" xlink:href="#b" gradientUnits="userSpaceOnUse" gradientTransform="matrix(0 2.71327 -2.5563 0 53.787 -14.04)"/><linearGradient id="b"><stop offset="0" stop-color="#fff3cb"/><stop offset=".262" stop-color="#fdde76"/><stop offset=".661" stop-color="#f9c440"/><stop offset="1" stop-color="#e48b20"/></linearGradient><radialGradient xlink:href="#c" id="d" gradientUnits="userSpaceOnUse" gradientTransform="matrix(.38235 0 0 .11152 -5.925 36.336)" cx="99.189" cy="185.297" fx="99.189" fy="185.297" r="62.769"/><linearGradient id="c"><stop offset="0"/><stop offset="1" stop-opacity="0"/></linearGradient><radialGradient xlink:href="#c" id="e" gradientUnits="userSpaceOnUse" gradientTransform="matrix(.2549 0 0 .07966 6.716 44.24)" cx="99.189" cy="185.297" fx="99.189" fy="185.297" r="62.769"/></defs><path d="M56 57.002a24 7 0 1 1-48 0 24 7 0 1 1 48 0z" opacity=".2" fill="url(#d)" transform="translate(0 -.002)"/><path d="M48 59.002a16 5 0 1 1-32 0 16 5 0 1 1 32 0z" opacity=".4" fill="url(#e)" transform="translate(0 -.002)"/><path d="M32 2.5C15.723 2.5 2.5 15.723 2.5 32S15.723 61.5 32 61.5 61.5 48.277 61.5 32 48.277 2.5 32 2.5z" color="#000" overflow="visible" fill="url(#f)"/><path d="M60.5 32c0 15.74-12.76 28.5-28.5 28.5S3.5 47.74 3.5 32 16.26 3.5 32 3.5 60.5 16.26 60.5 32z" color="#000" overflow="visible" opacity=".8" fill="none" stroke="url(#g)" stroke-linecap="round" stroke-linejoin="round"/><path d="M32 2.5C15.723 2.5 2.5 15.723 2.5 32S15.723 61.5 32 61.5 61.5 48.277 61.5 32 48.277 2.5 32 2.5z" color="#000" overflow="visible" opacity=".4" fill="none" stroke="#915f00" stroke-linecap="round" stroke-linejoin="round"/><path d="M38 16L23 37h9l-6 15 15-21h-7z" overflow="visible" fill="#fff" opacity=".4"/><path d="M38 15L23 36h9l-6 15 15-21h-7z" overflow="visible" fill="#333"/></svg>
